X:147
T:Dinkie's                                                                                          
M:4/4                                                                                               
L:1/8                                                                                               
K:D                                                                                                 
e3 d |:c2 Be ABcd|egfd edBd|gB B2 gBaB|gB B2 gfed|                                                  
c2 Be ABcd|egfd edBd|g3 e (3fgf ed|1 ceBe A^de=d :|2ceBe A3 A |                                     
aA A2 aAbA|aA A2 agef|gB B2 gBaB|gB B2 gefg|                                                        
aA A2 aAbA|aA A2 agef|g3 e (3fgf ed|ceBe AecA|                                                      
aA A2 aAbA|aA A2 agef|gB B2 gBaB|gB B2 gefg|                                                        
a3 f g3 e|fafd e3 f|gefd efed|ceBe A^de=d |>|
